svgs/openweather.svg

<svg width="192" height="192" viewBox="0 0 50.8 50.8" xml:space="preserve" xmlns="http://www.w3.org/2000/svg"><path style="opacity:1;fill:none;fill-rule:evenodd;stroke:#000;stroke-width:3.175;stroke-linecap:round;stroke-linejoin:round;stroke-miterlimit:0;stroke-dasharray:none;stroke-opacity:1" d="M7.859 29.266a14.947 14.947 0 0 1 5.864-16.112 14.947 14.947 0 0 1 17.147 0 14.947 14.947 0 0 1 5.865 16.112m-8.266 0h14.129m-37.298 0h4.487m.003 5.594h8.943m15.398 0h2.514m5.3 0h2.514m-31.771 5.594h23.757m-9.294-5.594h1.844M9.79 29.266a2.797 2.797 0 0 1 2.797 2.798A2.797 2.797 0 0 1 9.79 34.86m8.943 0a2.797 2.797 0 0 1 2.798 2.798 2.797 2.797 0 0 1-2.798 2.797m8.418 0a2.797 2.797 0 0 1-2.422-1.398 2.797 2.797 0 0 1 0-2.797 2.797 2.797 0 0 1 2.422-1.4"/><path style="opacity:1;fill:none;fill-rule:evenodd;stroke:#000;stroke-width:3.175;stroke-linecap:round;stroke-linejoin:round;stroke-miterlimit:0;stroke-dasharray:none;stroke-opacity:1" d="M28.47 34.86a2.797 2.797 0 0 1-2.422-1.398 2.797 2.797 0 0 1 0-2.797 2.797 2.797 0 0 1 2.423-1.399"/></svg>

<svg width="192" height="192" viewBox="0 0 50.8 50.8" xml:space="preserve" xmlns="http://www.w3.org/2000/svg"><path style="opacity:1;fill:none;fill-rule:evenodd;stroke:#000;stroke-width:3.175;stroke-linecap:round;stroke-linejoin:round;stroke-miterlimit:0;stroke-dasharray:none;stroke-opacity:1" d="M7.859 29.266a14.947 14.947 0 0 1 5.864-16.112 14.947 14.947 0 0 1 17.147 0 14.947 14.947 0 0 1 5.865 16.112M28.469 29.266h14.129M5.3 29.266h4.487M9.79 34.86h8.943M34.131 34.86h2.514M41.945 34.86h2.514M12.688 40.454h23.757M27.151 34.86h1.844M9.79 29.266a2.797 2.797 0 0 1 2.797 2.798A2.797 2.797 0 0 1 9.79 34.86M18.733 34.86a2.797 2.797 0 0 1 2.798 2.798 2.797 2.797 0 0 1-2.798 2.797M27.151 40.455a2.797 2.797 0 0 1-2.422-1.398 2.797 2.797 0 0 1 0-2.797 2.797 2.797 0 0 1 2.422-1.4"/><path style="opacity:1;fill:none;fill-rule:evenodd;stroke:#000;stroke-width:3.175;stroke-linecap:round;stroke-linejoin:round;stroke-miterlimit:0;stroke-dasharray:none;stroke-opacity:1" d="M28.47 34.86a2.797 2.797 0 0 1-2.422-1.398 2.797 2.797 0 0 1 0-2.797 2.797 2.797 0 0 1 2.423-1.399"/></svg>
